build/images/step3.svg

<svg width="431" height="332" viewBox="0 0 431 332" fill="none" xmlns="http://www.w3.org/2000/svg">
<g filter="url(#filter0_d_9_64)">
<path d="M339.581 87.4228C341.44 86.9247 343.141 88.6257 342.643 90.4846L294.654 269.582C294.156 271.441 291.833 272.063 290.472 270.703L159.363 139.594C158.003 138.234 158.625 135.91 160.484 135.412L339.581 87.4228Z" stroke="url(#paint0_linear_9_64)" stroke-width="5" shape-rendering="crispEdges"/>
</g>
<path d="M233.5 257C220.667 257 208.667 255.25 197.5 251.75C186.333 248.25 177 243.25 169.5 236.75L189 207C194.667 212 201.583 215.917 209.75 218.75C218.083 221.583 226.917 223 236.25 223C244.25 223 251 222 256.5 220C262.167 218 266.417 215.083 269.25 211.25C272.25 207.417 273.75 202.917 273.75 197.75C273.75 191.417 271.333 186.75 266.5 183.75C261.833 180.583 254.667 179 245 179H226.5L231.75 152.25L290.75 97L293.5 111.5H201.25L208 79H330.5L325.5 105.25L266.5 160.5L247.5 149H256.5C268.667 149 279.083 150.917 287.75 154.75C296.417 158.417 303.083 163.75 307.75 170.75C312.417 177.583 314.75 185.75 314.75 195.25C314.75 207.083 311.25 217.667 304.25 227C297.417 236.333 287.833 243.667 275.5 249C263.333 254.333 249.333 257 233.5 257Z" fill="white"/>
<path d="M1.7 254L8.7 219H16.8L9.8 254H1.7ZM10.25 239.85L11.55 233.15H23.8L22.5 239.85H10.25ZM24.9 254L17.35 237.1L24.1 233.35L33.6 254H24.9ZM24.3 237.35L16.5 236.45L31.35 219H40.45L24.3 237.35ZM54.7746 254.4C52.6079 254.4 50.7079 253.983 49.0746 253.15C47.4746 252.317 46.2746 251.033 45.4746 249.3C44.6746 247.533 44.3913 245.267 44.6246 242.5C44.8246 239.3 45.4746 236.517 46.5746 234.15C47.7079 231.783 49.2413 229.95 51.1746 228.65C53.1079 227.35 55.3913 226.7 58.0246 226.7C60.1246 226.7 62.0579 227.183 63.8246 228.15C65.5913 229.083 67.0079 230.45 68.0746 232.25C69.1413 234.017 69.6746 236.183 69.6746 238.75C69.6746 240.983 69.2913 243.067 68.5246 245C67.7579 246.9 66.6913 248.55 65.3246 249.95C63.9913 251.35 62.4246 252.45 60.6246 253.25C58.8246 254.017 56.8746 254.4 54.7746 254.4ZM35.6246 263.7L42.9246 227.1H50.3246L49.2246 232.45L47.5246 240.45L46.4746 248.45L43.4246 263.7H35.6246ZM53.8746 247.95C55.4413 247.95 56.8079 247.583 57.9746 246.85C59.1413 246.083 60.0579 245.05 60.7246 243.75C61.4246 242.417 61.7746 240.867 61.7746 239.1C61.7746 237.267 61.2413 235.817 60.1746 234.75C59.1079 233.683 57.5913 233.15 55.6246 233.15C54.1246 233.15 52.7746 233.533 51.5746 234.3C50.3746 235.033 49.4413 236.067 48.7746 237.4C48.1079 238.7 47.7746 240.233 47.7746 242C47.7746 243.833 48.3079 245.283 49.3746 246.35C50.4413 247.417 51.9413 247.95 53.8746 247.95ZM86.4379 254.4C83.7046 254.4 81.3212 253.9 79.2879 252.9C77.2546 251.9 75.6712 250.5 74.5379 248.7C73.4379 246.9 72.8879 244.783 72.8879 242.35C72.8879 239.35 73.5879 236.683 74.9879 234.35C76.3879 231.983 78.3046 230.117 80.7379 228.75C83.2046 227.383 86.0046 226.7 89.1379 226.7C91.9046 226.7 94.2879 227.2 96.2879 228.2C98.3212 229.2 99.8879 230.6 100.988 232.4C102.121 234.167 102.688 236.283 102.688 238.75C102.688 241.717 101.988 244.383 100.588 246.75C99.1879 249.117 97.2712 250.983 94.8379 252.35C92.4046 253.717 89.6046 254.4 86.4379 254.4ZM86.9379 248C88.4712 248 89.8212 247.633 90.9879 246.9C92.1879 246.133 93.1212 245.083 93.7879 243.75C94.4546 242.417 94.7879 240.867 94.7879 239.1C94.7879 237.3 94.2546 235.85 93.1879 234.75C92.1212 233.65 90.6212 233.1 88.6879 233.1C87.1546 233.1 85.7879 233.483 84.5879 234.25C83.4212 234.983 82.4879 236.017 81.7879 237.35C81.1212 238.683 80.7879 240.233 80.7879 242C80.7879 243.833 81.3212 245.3 82.3879 246.4C83.4546 247.467 84.9712 248 86.9379 248ZM124.447 254L118.347 241.2L124.797 238.25L133.447 254H124.447ZM105.347 254L110.747 227.1H118.547L113.147 254H105.347ZM112.947 243.8L114.097 237.55H123.547L122.347 243.8H112.947ZM125.097 241.5L117.747 240.6L129.947 227.1H138.447L125.097 241.5Z" fill="white"/>
<defs>
<filter id="filter0_d_9_64" x="126.128" y="54.8323" width="249.106" height="249.106" filterUnits="userSpaceOnUse" color-interpolation-filters="sRGB">
<feFlood flood-opacity="0" result="BackgroundImageFix"/>
<feColorMatrix in="SourceAlpha" type="matrix" values="0 0 0 0 0 0 0 0 0 0 0 0 0 0 0 0 0 0 127 0" result="hardAlpha"/>
<feOffset/>
<feGaussianBlur stdDeviation="15"/>
<feComposite in2="hardAlpha" operator="out"/>
<feColorMatrix type="matrix" values="0 0 0 0 0.121569 0 0 0 0 0.631373 0 0 0 0 1 0 0 0 0.65 0"/>
<feBlend mode="normal" in2="BackgroundImageFix" result="effect1_dropShadow_9_64"/>
<feBlend mode="normal" in="SourceGraphic" in2="effect1_dropShadow_9_64" result="shape"/>
</filter>
<linearGradient id="paint0_linear_9_64" x1="264.533" y1="110.13" x2="297.5" y2="203.967" gradientUnits="userSpaceOnUse">
<stop stop-color="#1FA1FF"/>
<stop offset="1" stop-opacity="0"/>
</linearGradient>
</defs>
</svg>

<svg width="431" height="332" fill="none" xmlns="http://www.w3.org/2000/svg"><g filter="url(#a)"><path d="M339.581 87.423c1.859-.498 3.56 1.203 3.062 3.062l-47.989 179.097c-.498 1.859-2.821 2.481-4.182 1.121L159.363 139.594c-1.36-1.36-.738-3.684 1.121-4.182l179.097-47.99Z" stroke="url(#b)" stroke-width="5" shape-rendering="crispEdges"/></g><path d="M233.5 257c-12.833 0-24.833-1.75-36-5.25-11.167-3.5-20.5-8.5-28-15L189 207c5.667 5 12.583 8.917 20.75 11.75 8.333 2.833 17.167 4.25 26.5 4.25 8 0 14.75-1 20.25-3 5.667-2 9.917-4.917 12.75-8.75 3-3.833 4.5-8.333 4.5-13.5 0-6.333-2.417-11-7.25-14-4.667-3.167-11.833-4.75-21.5-4.75h-18.5l5.25-26.75 59-55.25 2.75 14.5h-92.25L208 79h122.5l-5 26.25-59 55.25-19-11.5h9c12.167 0 22.583 1.917 31.25 5.75 8.667 3.667 15.333 9 20 16 4.667 6.833 7 15 7 24.5 0 11.833-3.5 22.417-10.5 31.75-6.833 9.333-16.417 16.667-28.75 22-12.167 5.333-26.167 8-42 8ZM1.7 254l7-35h8.1l-7 35H1.7Zm8.55-14.15 1.3-6.7H23.8l-1.3 6.7H10.25ZM24.9 254l-7.55-16.9 6.75-3.75L33.6 254h-8.7Zm-.6-16.65-7.8-.9L31.35 219h9.1L24.3 237.35Zm30.475 17.05c-2.167 0-4.067-.417-5.7-1.25-1.6-.833-2.8-2.117-3.6-3.85-.8-1.767-1.084-4.033-.85-6.8.2-3.2.85-5.983 1.95-8.35 1.133-2.367 2.666-4.2 4.6-5.5 1.933-1.3 4.216-1.95 6.85-1.95 2.1 0 4.033.483 5.8 1.45 1.766.933 3.183 2.3 4.25 4.1 1.066 1.767 1.6 3.933 1.6 6.5 0 2.233-.384 4.317-1.15 6.25-.767 1.9-1.834 3.55-3.2 4.95a14.63 14.63 0 0 1-4.7 3.3c-1.8.767-3.75 1.15-5.85 1.15Zm-19.15 9.3 7.3-36.6h7.4l-1.1 5.35-1.7 8-1.05 8-3.05 15.25h-7.8Zm18.25-15.75c1.566 0 2.933-.367 4.1-1.1 1.166-.767 2.083-1.8 2.75-3.1.7-1.333 1.05-2.883 1.05-4.65 0-1.833-.534-3.283-1.6-4.35-1.067-1.067-2.584-1.6-4.55-1.6-1.5 0-2.85.383-4.05 1.15-1.2.733-2.134 1.767-2.8 3.1-.667 1.3-1 2.833-1 4.6 0 1.833.533 3.283 1.6 4.35 1.066 1.067 2.566 1.6 4.5 1.6Zm32.563 6.45c-2.733 0-5.117-.5-7.15-1.5-2.033-1-3.617-2.4-4.75-4.2-1.1-1.8-1.65-3.917-1.65-6.35 0-3 .7-5.667 2.1-8 1.4-2.367 3.317-4.233 5.75-5.6 2.467-1.367 5.267-2.05 8.4-2.05 2.767 0 5.15.5 7.15 1.5 2.033 1 3.6 2.4 4.7 4.2 1.133 1.767 1.7 3.883 1.7 6.35 0 2.967-.7 5.633-2.1 8-1.4 2.367-3.317 4.233-5.75 5.6s-5.233 2.05-8.4 2.05Zm.5-6.4c1.533 0 2.883-.367 4.05-1.1 1.2-.767 2.133-1.817 2.8-3.15.667-1.333 1-2.883 1-4.65 0-1.8-.533-3.25-1.6-4.35-1.067-1.1-2.567-1.65-4.5-1.65-1.533 0-2.9.383-4.1 1.15-1.167.733-2.1 1.767-2.8 3.1-.667 1.333-1 2.883-1 4.65 0 1.833.533 3.3 1.6 4.4 1.067 1.067 2.583 1.6 4.55 1.6Zm37.509 6-6.1-12.8 6.45-2.95 8.65 15.75h-9Zm-19.1 0 5.4-26.9h7.8l-5.4 26.9h-7.8Zm7.6-10.2 1.15-6.25h9.45l-1.2 6.25h-9.4Zm12.15-2.3-7.35-.9 12.2-13.5h8.5l-13.35 14.4Z" fill="#fff"/><defs><linearGradient id="b" x1="264.533" y1="110.13" x2="297.5" y2="203.967" gradientUnits="userSpaceOnUse"><stop stop-color="#1FA1FF"/><stop offset="1" stop-opacity="0"/></linearGradient><filter id="a" x="126.128" y="54.832" width="249.106" height="249.106" filterUnits="userSpaceOnUse" color-interpolation-filters="sRGB"><feFlood flood-opacity="0" result="BackgroundImageFix"/><feColorMatrix in="SourceAlpha" values="0 0 0 0 0 0 0 0 0 0 0 0 0 0 0 0 0 0 127 0" result="hardAlpha"/><feOffset/><feGaussianBlur stdDeviation="15"/><feComposite in2="hardAlpha" operator="out"/><feColorMatrix values="0 0 0 0 0.121569 0 0 0 0 0.631373 0 0 0 0 1 0 0 0 0.65 0"/><feBlend in2="BackgroundImageFix" result="effect1_dropShadow_9_64"/><feBlend in="SourceGraphic" in2="effect1_dropShadow_9_64" result="shape"/></filter></defs></svg>
